logo/apache-camel.svg

<?xml version="1.0" encoding="UTF-8"?>
<svg width="256px" height="256px" viewBox="0 0 256 256" version="1.1" xmlns="http://www.w3.org/2000/svg" xmlns:xlink="http://www.w3.org/1999/xlink" preserveAspectRatio="xMidYMid">
    <defs>
        <circle id="path-1" cx="128" cy="128.00015" r="128"></circle>
        <linearGradient x1="-12.5638445%" y1="108.214456%" x2="101.304079%" y2="-1.96418442%" id="linearGradient-3">
            <stop stop-color="#F69923" offset="0%"></stop>
            <stop stop-color="#F79A23" offset="10.996%"></stop>
            <stop stop-color="#E97826" offset="94.502%"></stop>
        </linearGradient>
        <linearGradient x1="-12.5638445%" y1="108.214456%" x2="101.304079%" y2="-1.96418442%" id="linearGradient-4">
            <stop stop-color="#F69923" offset="0%"></stop>
            <stop stop-color="#F79A23" offset="8.0478%"></stop>
            <stop stop-color="#E97826" offset="41.874%"></stop>
        </linearGradient>
        <linearGradient x1="74.7241541%" y1="-3.0591512%" x2="6.6528419%" y2="100.065517%" id="linearGradient-5">
            <stop stop-color="#F6E423" offset="0%"></stop>
            <stop stop-color="#F79A23" offset="41.191%"></stop>
            <stop stop-color="#E97826" offset="73.271%"></stop>
        </linearGradient>
    </defs>
		<g>
				<mask id="mask-2" fill="white">
						<use xlink:href="#path-1"></use>
				</mask>
				<g></g>
				<circle fill="url(#linearGradient-3)" fill-rule="nonzero" mask="url(#mask-2)" cx="127.99429" cy="127.994289" r="123.110531"></circle>
				<path d="M128,256 C57.307552,256 0,198.692448 0,128 C0,57.307552 57.307552,0 128,0 C198.692448,0 256,57.307552 256,128 C256,198.692448 198.692448,256 128,256 Z M128,246.232047 C193.297756,246.232047 246.232047,193.297757 246.232047,128 C246.232047,62.7022434 193.297756,9.76795285 128,9.76795285 C62.7022433,9.76795285 9.76795287,62.7022434 9.76795287,128 C9.76795287,193.297757 62.7022433,246.232047 128,246.232047 Z" fill="url(#linearGradient-4)" fill-rule="nonzero" mask="url(#mask-2)"></path>
				<path d="M98.0436948,75.5167519 C96.2930127,75.5147828 94.5195279,75.5265976 92.7516355,75.578189 C90.6964457,75.6388385 87.9353199,76.2913715 84.7520108,77.3627207 C138.52721,118.196743 157.860212,191.86024 124.627063,255.876929 C125.755714,255.906269 126.875819,256 128.011618,256 C188.747721,256 239.504232,213.677309 252.620663,156.92871 C214.078718,111.750768 161.80794,75.6151104 98.043301,75.5166535 L98.0436948,75.5167519 Z" fill="url(#linearGradient-5)" fill-rule="nonzero" opacity="0.75" mask="url(#mask-2)"></path>
				<path d="M84.7520108,77.3677419 C66.8954703,83.3771585 32.8297703,104.545789 0.0790609054,132.810802 C2.56627958,200.145488 57.1072772,254.12351 124.627063,255.88195 C157.860212,191.865262 138.527998,118.201764 84.7520108,77.3677419 L84.7520108,77.3677419 Z" fill="#28170B" fill-rule="nonzero" opacity="0.75" mask="url(#mask-2)"></path>
				<path d="M128.747194,54.0045284 C117.762336,59.4999 128.747194,81.4705963 128.747194,81.4705963 C95.774179,108.954321 102.779988,155.899717 64.3117981,155.899717 C43.3414552,155.899717 22.069572,131.822923 0.0790609054,117.071683 C-0.204035781,120.550653 -0.706298828,124.044146 -0.706298828,127.596097 C-0.706298828,175.691144 25.5565753,217.52046 64.7133789,239.493314 C75.666062,238.113713 87.5520153,235.378866 95.7643696,229.900759 C138.909639,201.135938 149.621405,146.409798 167.250697,119.975669 C178.229669,103.483669 229.684993,104.914651 233.157489,97.9655396 C238.658746,86.9747963 222.166942,70.4994717 216.665685,70.4994717 L172.708205,70.4994717 C169.63691,70.4994717 164.811122,65.0431411 161.733941,65.0431411 L145.242137,65.0431411 C145.242137,65.0431411 137.935182,53.9580322 131.447893,53.5172018 C130.51799,53.4510871 129.61726,53.5697797 128.747194,54.0045284 Z" fill="#FFFFFF" fill-rule="nonzero" mask="url(#mask-2)"></path>
		</g>
</svg>

<svg viewBox="0 0 256 256" xmlns="http://www.w3.org/2000/svg" xmlns:xlink="http://www.w3.org/1999/xlink"><defs><linearGradient id="a" x1="-12.564%" x2="101.304%" y1="108.214%" y2="-1.965%"><stop offset="0%" stop-color="#F69923"/><stop offset="10.996%" stop-color="#F79A23"/><stop offset="94.502%" stop-color="#E97826"/></linearGradient><mask id="b"><use fill="#FFF" xlink:href="#i"/></mask><linearGradient id="c" x1="-12.564%" x2="101.304%" y1="108.214%" y2="-1.965%"><stop offset="0%" stop-color="#F69923"/><stop offset="8.0478%" stop-color="#F79A23"/><stop offset="41.874%" stop-color="#E97826"/></linearGradient><mask id="d"><use fill="#FFF" xlink:href="#i"/></mask><linearGradient id="e" x1="74.724%" x2="6.652%" y1="-3.06%" y2="100.065%"><stop offset="0%" stop-color="#F6E423"/><stop offset="41.191%" stop-color="#F79A23"/><stop offset="73.271%" stop-color="#E97826"/></linearGradient><mask id="f"><use fill="#FFF" xlink:href="#i"/></mask><mask id="g"><use fill="#FFF" xlink:href="#i"/></mask><mask id="h"><use fill="#FFF" xlink:href="#i"/></mask><path id="i" d="M128 0a128 128 0 1 0 0 256 128 128 0 1 0 0-256Z"/></defs><path mask="url(#b)" fill="url(#a)" d="M127.99 4.88a123.11 123.11 0 1 0 0 246.22 123.11 123.11 0 1 0 0-246.23Z"/><path mask="url(#d)" fill="url(#c)" d="M128 256C57.3 256 0 198.69 0 128 0 57.3 57.3 0 128 0c70.69 0 128 57.3 128 128 0 70.69-57.31 128-128 128Zm0-9.77c65.29 0 118.23-52.94 118.23-118.24s-52.94-118.24-118.24-118.24 -118.24 52.93-118.24 118.23c-.001 65.29 52.93 118.23 118.23 118.23Z"/><path mask="url(#f)" opacity=".75" fill="url(#e)" d="M98.04 75.51c-1.76-.01-3.53 0-5.3.06 -2.06.06-4.82.71-8 1.78 53.77 40.83 73.1 114.49 39.87 178.51 1.12.02 2.24.12 3.38.12 60.73 0 111.49-42.33 124.6-99.08 -38.55-45.18-90.82-81.32-154.58-81.42l0 0Z"/><path mask="url(#g)" opacity=".75" fill="#28170B" d="M84.75 77.36c-17.86 6-51.93 27.17-84.68 55.44 2.48 67.33 57.02 121.31 124.54 123.07 33.23-64.02 13.9-137.69-39.88-178.52v0Z"/><path mask="url(#h)" fill="#FFF" d="M128.74 54c-10.99 5.49 0 27.46 0 27.46 -32.98 27.48-25.97 74.42-64.44 74.42 -20.98 0-42.25-24.08-64.24-38.83 -.29 3.47-.79 6.97-.79 10.52 0 48.09 26.26 89.92 65.41 111.89 10.95-1.38 22.83-4.12 31.05-9.6 43.14-28.77 53.85-83.5 71.48-109.93 10.97-16.5 62.43-15.07 65.9-22.02 5.5-11-11-27.47-16.5-27.47h-43.96c-3.08 0-7.9-5.46-10.98-5.46h-16.5s-7.31-11.09-13.8-11.53c-.93-.07-1.84.05-2.71.48Z"/></svg>
